packages/elvis-assets-icons/icons/svg/src/crane.svg

<svg width="24" height="24" viewBox="0 0 24 24" fill="none" xmlns="http://www.w3.org/2000/svg">
<g clip-path="url(#clip0)">
<path d="M0.75 24.001C0.336 24.001 0 23.665 0 23.251C0 22.837 0.336 22.501 0.75 22.501H3.75V7.50095H0.75C0.336 7.50095 0 7.16395 0 6.75095C0 6.33795 0.336 6.00095 0.75 6.00095H2.708L8.84 0.386953C9.122 0.136953 9.478 0.00195312 9.846 0.00195312C10.106 0.00195312 10.363 0.0699531 10.589 0.198953L20.454 6.00095H23.25C23.664 6.00095 24 6.33695 24 6.75095C24 7.16495 23.664 7.50095 23.25 7.50095H21V10.063C21 10.361 21.177 10.631 21.45 10.751C22.544 11.228 23.25 12.307 23.25 13.5C23.25 14.3 22.938 15.053 22.371 15.62C21.804 16.187 21.051 16.5 20.251 16.5C19.449 16.5 18.696 16.188 18.129 15.622C17.562 15.055 17.25 14.302 17.25 13.501C17.25 13.087 17.586 12.751 18 12.751C18.414 12.751 18.75 13.087 18.75 13.501C18.75 13.902 18.906 14.278 19.19 14.561C19.473 14.844 19.849 15 20.25 15C20.651 15 21.027 14.844 21.311 14.56C21.594 14.276 21.751 13.9 21.75 13.5C21.75 12.904 21.396 12.364 20.85 12.126C20.03 11.768 19.5 10.959 19.5 10.064V7.50095H9.75V22.501H12.75C13.164 22.501 13.5 22.837 13.5 23.251C13.5 23.665 13.164 24.001 12.75 24.001H0.75ZM8.25 22.501V18.001L5.25 22.001V22.501H8.25ZM5.25 19.5L8.25 15.5V14.5L5.25 10.5V19.5ZM8.25 12V7.49995H5.25V7.99995L8.25 12ZM17.496 6.00095L9.846 1.50095L4.93 6.00095H17.496Z" fill="black"/>
</g>
<defs>
<clipPath id="clip0">
<rect width="24" height="24" fill="white"/>
</clipPath>
</defs>
</svg>

<svg width="24" height="24" fill="none" xmlns="http://www.w3.org/2000/svg"><g clip-path="url(#clip0)"><path d="M.75 24.001a.75.75 0 010-1.5h3v-15h-3a.75.75 0 010-1.5h1.958L8.84.387a1.501 1.501 0 011.749-.188l9.865 5.802h2.796a.75.75 0 010 1.5H21v2.562c0 .298.177.568.45.688a2.998 2.998 0 01.921 4.869 2.98 2.98 0 01-2.12.88 2.983 2.983 0 01-2.122-.878 2.98 2.98 0 01-.879-2.121.75.75 0 011.5 0c0 .401.156.777.44 1.06.283.283.659.439 1.06.439a1.49 1.49 0 001.061-.44 1.5 1.5 0 00-.461-2.434 2.25 2.25 0 01-1.35-2.062V7.501H9.75v15h3a.75.75 0 010 1.5h-12zm7.5-1.5v-4.5l-3 4v.5h3zm-3-3.001l3-4v-1l-3-4v9zm3-7.5V7.5h-3V8l3 4zm9.246-6l-7.65-4.5L4.93 6h12.566z" fill="#000"/></g><defs><clipPath id="clip0"><path fill="#fff" d="M0 0h24v24H0z"/></clipPath></defs></svg>
